X: 179
T: Royal Circus
T: Jig, F
L: 1/16
M: 6/8
K: F
|: A2c4 c2B2A2| B2d4 d2c2B2| A2c4 c2B2A2| B2A2G2 A2G2F2| 
A2c4 c2B2A2| B2d4 d2c2B2| A2c2f2 g2b2e2| [1 f6 f2c2B2:| [2 f6 f4a2|]
|: g2e2c2 c2e2g2| a2f2c2 c2f2a2| b2a2g2 a2g2f2| e2f2g2 c6| 
d2B2d2 d2f2b2| c2A2c2 c2f2a2| b2a2g2 a2g2f2| [1 c2f2e2 f4a2:| [2 c2f2e2 f2c2B2|]
S: Gow Collection
D: Buddy MacMaster, Glencoe Hall, BM-91
